X: 17
T:Maid of the Mill, Brackley 2
M:6/8
L:1/8
A:Brackley
P:A(AB3)4A2
Q:100
K:G
P:A
|:G>FG B>AB|ABc  d3|E>FE E2D|G3 G3:|
P:B
  d>ef d2B |c>Bc c3|E>FE E2D|G3 G3 |
  d2d  d3  |B2B  B3|E>FE E2D|G3 G3||
